X: 1253
T: Bert Jamieson's Beauty No 1
B: australian traditional tunes wiki
M:6/8
L:1/8
R: Jig
Q: 3/8=100
K:D
V:1 
F2G|:"D"A2f fed|A2f fed|"Em"B2e ede|B2e ede|
"D"fed c2d|"A7"e2d c2B|"D"A2df3|d3-dcB:|
|:"D"A3-A2F|"Em"G2F E2B|"D"A3-ABA|"G"B2GB2c|
"D"ded c2d|"Em"e2B "A7"c2A|"Em"e2B "A7"c2A|"D"d3-d3:|
% abcbook-tune_id 6342d53ab1241a2e894ed0e2


% abcbook-boost 0
% abcbook-tablature 
% abcbook-transpose 
% abcbook-lastupdated 1665324356142
% abcbook-soundfonts 
% abcbook-repeats 1
% NFF Book 2009

